X:1
T:Title
%%score { ( 1 4 ) | ( 2 3 ) }
L:1/8
M:4/4
K:D
V:1 treble nm="Grand Piano"
V:4 treble 
V:2 bass 
V:3 bass 
V:1
 z4 z2[Q:1/4=106] A2 | A2 dc B2 A2 | G2 .[A,CA]2 [A,DF]2 [DF]2 | z2 [Fd]2 z2 B2 |[M:3/4] [CA]6 | %5
[M:1/4] [EA]2 |[M:4/4] [DF]2 [DF]2 [DG]2 A2 | B2 [Ge][Fd] [Ec]2 [Fd]2 | A2 BG F2 z G, | %9
[M:3/4] D6 |] %10
V:2
 z4 z2 [D,F,D]2 | [F,A,D]2 [D,F,D]2 [G,D]2 [F,A,D]2 | [E,B,D]2 z G D,2 B,,2 | %3
 C,2 .[D,B,]2 [E,A,E]2 .[E,^G,E]2 |[M:3/4] [A,,A,]6 |[M:1/4] [C,A,]2 | %6
[M:4/4] [D,A,]2 [=C,A,]2 [B,,G,]2 [D,F,D]2 | [G,D]2 [E,B,]2 [A,C]2 [D,A,]2 | %8
 [F,D]2 [G,B,D]2 [A,D]2 .[A,,A,]2 |[M:3/4] [D,F,]6 |] %10
V:3
 x8 | x8 | z2 A,,2 z4 | x8 |[M:3/4] x6 |[M:1/4] x2 |[M:4/4] x8 | x8 | x8 |[M:3/4] x6 |] %10
V:4
 x8 | x8 | x8 | [CEA]2 z A, c2 z D |[M:3/4] x6 |[M:1/4] x2 |[M:4/4] x8 | x8 | z4 z2 [CE]2 | %9
[M:3/4] x6 |] %10

